X: 1
T: T\"ors g\aangl\aat
C: John Carl\"o
B: Svenska Folkl\aatar f\"or tv\aa fioler
Z: 2006 John Chambers <jc@trillian.mit.edu>
M: C
L: 1/16
K: G
   z2 |: d4   d2ed B2G2 B2d2 | g2fg b2g2 d4    | c2cB c2B2 A2d2 f2a2 |1,3 g3f  g2e2 d2c2    B2c2 :|2,4 g4 {a}gfga "fine"[g4B4] z2 :|
|: B2 |  e2B2 B2e2 g2g2 f2e2 | f2ag fedc B6 B2 | c3B  A2c2 B3A  G2B2 |1,3 ABAG FEDC B,2B,B, B,2  :|2,4 FEFG  AGAB cBcd "d.C."e2c2 |]
